docs/assets/facebook.svg

<svg width="36" height="37" viewBox="0 0 36 37" fill="none" xmlns="http://www.w3.org/2000/svg">
<circle cx="18" cy="18.4297" r="18" fill="#F0F3FF"/>
<path d="M21.9843 19.5011L22.4531 16.4208H19.4731V14.4118C19.4731 13.5413 19.8749 12.7377 21.2142 12.7377H22.587V10.0926C22.587 10.0926 21.3481 9.85826 20.1763 9.85826C17.7321 9.85826 16.1249 11.365 16.1249 14.0435V16.4208H13.3794V19.5011H16.1249V27.0011H19.4731V19.5011H21.9843Z" fill="#183C75"/>
</svg>

<svg xmlns="http://www.w3.org/2000/svg" fill="none" viewBox="0 0 36 37"><circle cx="18" cy="18.43" r="18" fill="#F0F3FF"/><path fill="#183C75" d="m21.984 19.501.47-3.08h-2.98v-2.01c0-.87.4-1.673 1.74-1.673h1.373v-2.645s-1.239-.235-2.41-.235c-2.445 0-4.052 1.507-4.052 4.185v2.378h-2.746v3.08h2.746v7.5h3.348v-7.5h2.511z"/></svg>
